symbols/web/phone_missed/materialsymbolsrounded/phone_missed_grad200_20px.svg

<svg xmlns="http://www.w3.org/2000/svg" height="20" width="20"><path d="M2.542 17.75.583 15.854Q.229 15.5.25 15.062q.021-.437.333-.791 1.896-1.896 4.323-3 2.427-1.104 5.136-1.104 2.729 0 5.145 1.073 2.417 1.072 4.251 3.031.312.354.333.791.021.438-.333.792l-1.959 1.896q-.291.292-.698.312-.406.021-.76-.229l-2.479-1.854q-.209-.167-.334-.417-.125-.25-.125-.5v-2.166q-.687-.271-1.448-.354-.76-.084-1.614-.084-.833 0-1.615.084-.781.083-1.468.354v2.166q0 .25-.126.5-.124.25-.333.417L4 17.833q-.354.25-.76.229-.407-.02-.698-.312Zm.896-2.292 1.208-.958v-.625q-.417.25-.792.51-.375.261-.875.615Zm13.145 0 .417-.437q-.417-.313-.833-.615-.417-.302-.792-.489v.583ZM9.958 9.083q-.208 0-.427-.093-.219-.094-.385-.261L6.083 5.667v.645q0 .459-.343.803-.344.343-.802.343-.459 0-.803-.343-.343-.344-.343-.803V2.917q0-.459.333-.792t.792-.333h3.354q.458 0 .802.343.344.344.344.803 0 .458-.344.802-.344.343-.802.343h-.542l2.209 2.209 3.916-3.917q.334-.333.823-.344.49-.01.823.323.333.354.323.844-.011.49-.344.823l-4.708 4.708q-.167.167-.386.261-.218.093-.427.093Zm5.417 4.834Zm-10.729-.042Z"/></svg>

<svg xmlns="http://www.w3.org/2000/svg" height="20" width="20"><path d="M2.542 17.75 0.583 15.854Q0.229 15.5 0.25 15.062Q0.271 14.625 0.583 14.271Q2.479 12.375 4.906 11.271Q7.333 10.167 10.042 10.167Q12.771 10.167 15.187 11.24Q17.604 12.312 19.438 14.271Q19.75 14.625 19.771 15.062Q19.792 15.5 19.438 15.854L17.479 17.75Q17.188 18.042 16.781 18.062Q16.375 18.083 16.021 17.833L13.542 15.979Q13.333 15.812 13.208 15.562Q13.083 15.312 13.083 15.062V12.896Q12.396 12.625 11.635 12.542Q10.875 12.458 10.021 12.458Q9.188 12.458 8.406 12.542Q7.625 12.625 6.938 12.896V15.062Q6.938 15.312 6.812 15.562Q6.688 15.812 6.479 15.979L4 17.833Q3.646 18.083 3.24 18.062Q2.833 18.042 2.542 17.75ZM3.438 15.458 4.646 14.5V13.875Q4.229 14.125 3.854 14.385Q3.479 14.646 2.979 15ZM16.583 15.458 17 15.021Q16.583 14.708 16.167 14.406Q15.75 14.104 15.375 13.917V14.5ZM9.958 9.083Q9.75 9.083 9.531 8.99Q9.312 8.896 9.146 8.729L6.083 5.667V6.312Q6.083 6.771 5.74 7.115Q5.396 7.458 4.938 7.458Q4.479 7.458 4.135 7.115Q3.792 6.771 3.792 6.312V2.917Q3.792 2.458 4.125 2.125Q4.458 1.792 4.917 1.792H8.271Q8.729 1.792 9.073 2.135Q9.417 2.479 9.417 2.938Q9.417 3.396 9.073 3.74Q8.729 4.083 8.271 4.083H7.729L9.938 6.292L13.854 2.375Q14.188 2.042 14.677 2.031Q15.167 2.021 15.5 2.354Q15.833 2.708 15.823 3.198Q15.812 3.688 15.479 4.021L10.771 8.729Q10.604 8.896 10.385 8.99Q10.167 9.083 9.958 9.083ZM15.375 13.917Q15.375 13.917 15.375 13.917Q15.375 13.917 15.375 13.917ZM4.646 13.875Q4.646 13.875 4.646 13.875Q4.646 13.875 4.646 13.875Z"/></svg>
